svgs/materials/action/fax.svg

<?xml version="1.0" encoding="UTF-8" standalone="no"?>
<svg
   enable-background="new 0 0 24 24"
   height="24"
   viewBox="0 0 24 24"
   width="24"
   version="1.1"
   id="svg300"
   sodipodi:docname="fax.svg"
   inkscape:version="1.2 (dc2aeda, 2022-05-15)"
   xmlns:inkscape="http://www.inkscape.org/namespaces/inkscape"
   xmlns:sodipodi="http://sodipodi.sourceforge.net/DTD/sodipodi-0.dtd"
   xmlns="http://www.w3.org/2000/svg"
   xmlns:svg="http://www.w3.org/2000/svg">
  <defs
     id="defs304" />
  <sodipodi:namedview
     id="namedview302"
     pagecolor="#ffffff"
     bordercolor="#000000"
     borderopacity="0.25"
     inkscape:showpageshadow="2"
     inkscape:pageopacity="0.0"
     inkscape:pagecheckerboard="0"
     inkscape:deskcolor="#d1d1d1"
     showgrid="false"
     inkscape:zoom="9.8333333"
     inkscape:cx="12.050847"
     inkscape:cy="12"
     inkscape:window-width="1309"
     inkscape:window-height="456"
     inkscape:window-x="0"
     inkscape:window-y="25"
     inkscape:window-maximized="0"
     inkscape:current-layer="svg300" />
  <path
     d="M 19,9 H 18 V 4 H 8 V 18.5 20 H 22 V 12 C 22,10.34 20.66,9 19,9 Z M 10,6 h 6 v 3 h -6 z m 4,11 h -4 v -5 h 4 z m 2,0 c -0.55,0 -1,-0.45 -1,-1 0,-0.55 0.45,-1 1,-1 0.55,0 1,0.45 1,1 0,0.55 -0.45,1 -1,1 z m 0,-3 c -0.55,0 -1,-0.45 -1,-1 0,-0.55 0.45,-1 1,-1 0.55,0 1,0.45 1,1 0,0.55 -0.45,1 -1,1 z m 3,3 c -0.55,0 -1,-0.45 -1,-1 0,-0.55 0.45,-1 1,-1 0.55,0 1,0.45 1,1 0,0.55 -0.45,1 -1,1 z m 0,-3 c -0.55,0 -1,-0.45 -1,-1 0,-0.55 0.45,-1 1,-1 0.55,0 1,0.45 1,1 0,0.55 -0.45,1 -1,1 z"
     id="path292" />
  <path
     d="M 4.5,8 C 3.12,8 2,9.12 2,10.5 v 8 C 2,19.88 3.12,21 4.5,21 5.88,21 7,19.88 7,18.5 v -8 C 7,9.12 5.88,8 4.5,8 Z"
     id="path294" />
</svg>

<svg xmlns="http://www.w3.org/2000/svg" enable-background="new 0 0 24 24" height="24" viewBox="0 0 24 24" width="24"><g><rect fill="none" height="24" width="24"/></g><g><g><path d="M19,9h-1V4H8v14.5V20h14v-8C22,10.34,20.66,9,19,9z M10,6h6v3h-6V6z M14,17h-4v-5h4V17z M16,17c-0.55,0-1-0.45-1-1 c0-0.55,0.45-1,1-1s1,0.45,1,1C17,16.55,16.55,17,16,17z M16,14c-0.55,0-1-0.45-1-1c0-0.55,0.45-1,1-1s1,0.45,1,1 C17,13.55,16.55,14,16,14z M19,17c-0.55,0-1-0.45-1-1c0-0.55,0.45-1,1-1s1,0.45,1,1C20,16.55,19.55,17,19,17z M19,14 c-0.55,0-1-0.45-1-1c0-0.55,0.45-1,1-1s1,0.45,1,1C20,13.55,19.55,14,19,14z"/><path d="M4.5,8C3.12,8,2,9.12,2,10.5v8C2,19.88,3.12,21,4.5,21S7,19.88,7,18.5v-8C7,9.12,5.88,8,4.5,8z"/></g></g></svg>
